X: 30395
T: Old Schoolmaster, The
R: reel
M: 4/4
K: Cmajor
~G3A cded|cA~A2 cAAG|EG~G2 GAce|1 gece edcA:|2 gece decd||
egg^f gedg|eaag ~a3g|egg^f gc (3efg|agec decd|
egg^f gedg|eaag ~a3^f|gede cdeg|gece edcA||

